src/app/icons/heading5.svg

<?xml version="1.0" encoding="UTF-8" standalone="no"?>
<svg
   xmlns:dc="http://purl.org/dc/elements/1.1/"
   xmlns:cc="http://creativecommons.org/ns#"
   xmlns:rdf="http://www.w3.org/1999/02/22-rdf-syntax-ns#"
   xmlns:svg="http://www.w3.org/2000/svg"
   xmlns="http://www.w3.org/2000/svg"
   xmlns:sodipodi="http://sodipodi.sourceforge.net/DTD/sodipodi-0.dtd"
   xmlns:inkscape="http://www.inkscape.org/namespaces/inkscape"
   inkscape:version="1.0 (4035a4f, 2020-05-01)"
   sodipodi:docname="heading5.svg"
   id="svg12"
   version="1.1"
   viewBox="0 0 16 16"
   height="16"
   width="16">
  <metadata
     id="metadata18">
    <rdf:RDF>
      <cc:Work
         rdf:about="">
        <dc:format>image/svg+xml</dc:format>
        <dc:type
           rdf:resource="http://purl.org/dc/dcmitype/StillImage" />
        <dc:title></dc:title>
      </cc:Work>
    </rdf:RDF>
  </metadata>
  <defs
     id="defs16" />
  <sodipodi:namedview
     inkscape:bbox-nodes="true"
     inkscape:snap-bbox="true"
     inkscape:guide-bbox="true"
     showguides="true"
     inkscape:current-layer="svg12"
     inkscape:window-maximized="0"
     inkscape:window-y="23"
     inkscape:window-x="1344"
     inkscape:cy="8"
     inkscape:cx="8.1470585"
     inkscape:zoom="36.208333"
     showgrid="true"
     id="namedview14"
     inkscape:window-height="1035"
     inkscape:window-width="1920"
     inkscape:pageshadow="2"
     inkscape:pageopacity="0"
     guidetolerance="10"
     gridtolerance="10"
     objecttolerance="10"
     borderopacity="1"
     bordercolor="#666666"
     pagecolor="#ffffff">
    <inkscape:grid
       id="grid91"
       type="xygrid" />
  </sodipodi:namedview>
  <path
     sodipodi:nodetypes="ssccccccccccss"
     style="stroke-width:1.00002"
     id="path10"
     d="M 1.7500114,2 C 2.1642313,2 2.5000228,2.3357915 2.5000228,2.7500114 V 6.2499886 H 7.4999887 V 2.7500114 c 5.654e-4,-0.9994488 1.500588,-0.9994488 1.5000226,0 V 11.75 c -5.654e-4,0.999449 -1.500588,0.999449 -1.5000226,0 V 7.7500114 H 2.5000228 V 11.75 C 2.49974,12.749732 0.99971724,12.749732 1,11.75 V 2.7500114 C 1,2.3357915 1.3357915,2 1.7500114,2 Z"
     fill-rule="evenodd" />
  <g
     style="font-style:normal;font-variant:normal;font-weight:bold;font-stretch:normal;font-size:9.80392px;line-height:1.25;font-family:'PT Mono';-inkscape-font-specification:'PT Mono, Bold';font-variant-ligatures:normal;font-variant-caps:normal;font-variant-numeric:normal;font-variant-east-asian:normal;opacity:1;fill:#000000;fill-opacity:1;stroke:none;stroke-width:0.245097"
     id="text22-4-4-6-1"
     aria-label="5">
    <path
       id="path576"
       style="stroke-width:0.245097"
       d="m 12.22549,12.872549 q 0.32353,0 0.598039,-0.07843 0.27451,-0.07843 0.470589,-0.22549 0.205882,-0.147059 0.313725,-0.362745 0.117647,-0.215686 0.117647,-0.490196 0,-0.539216 -0.431372,-0.843137 -0.421569,-0.313726 -1.27451,-0.313726 -0.107843,0 -0.254902,0.0098 -0.137255,0 -0.264706,0.0098 -0.147059,0.0098 -0.303921,0.0098 V 7.0000014 h 3.549019 v 1.1764704 h -2.45098 v 1.343137 q 0.07843,0 0.156862,-0.0098 0.06863,0 0.127451,0 0.06863,-0.0098 0.117647,-0.0098 0.490196,0 0.911765,0.1470588 0.421569,0.1372549 0.735294,0.4215682 0.313725,0.284314 0.480392,0.696079 Q 15,11.166667 15,11.656863 q 0,0.578432 -0.215687,1.019608 -0.215686,0.431372 -0.588235,0.72549 -0.372549,0.294118 -0.862745,0.45098 Q 12.843137,14 12.284314,14 q -0.215686,0 -0.460784,-0.04902 -0.245098,-0.03922 -0.480392,-0.09804 -0.235295,-0.06863 -0.441177,-0.147058 -0.196078,-0.07843 -0.333333,-0.147059 l 0.411765,-1.019608 q 0.166666,0.09804 0.509803,0.215686 0.352941,0.117647 0.735294,0.117647 z" />
  </g>
</svg>

<svg xmlns="http://www.w3.org/2000/svg" viewBox="0 0 16 16" height="16" width="16"><path d="M1.75 2a.75.75 0 0 1 .75.75v3.5h5v-3.5c0-1 1.5-1 1.5 0v9c0 1-1.5 1-1.5 0v-4h-5v4c0 1-1.5 1-1.5 0v-9A.75.75 0 0 1 1.75 2z" fill-rule="evenodd"/><path d="M12.225 12.873q.324 0 .599-.079.274-.078.47-.225.206-.147.314-.363.117-.216.117-.49 0-.54-.43-.843-.422-.314-1.275-.314-.108 0-.255.01-.138 0-.265.01-.147.01-.304.01V7h3.55v1.176h-2.452V9.52q.079 0 .157-.01h.127q.07-.01.118-.01.49 0 .912.147.421.137.735.422.314.284.48.696.177.402.177.892 0 .578-.216 1.02-.215.43-.588.725-.372.294-.863.45-.49.148-1.049.148-.215 0-.46-.049-.246-.04-.48-.098-.236-.069-.442-.147-.196-.079-.333-.147l.411-1.02q.167.098.51.216.353.118.735.118z"/></svg>
